resources/haticons/SVG/strikethrough.svg

<!-- Generated by IcoMoon.io -->
<svg version="1.1" xmlns="http://www.w3.org/2000/svg" width="24" height="24" viewBox="0 0 24 24">
<title>strikethrough</title>
<path d="M24 12v1.5h-5.496c0.645 0.903 0.996 1.938 0.996 3 0 1.661-0.859 3.258-2.357 4.382-1.391 1.043-3.218 1.618-5.143 1.618s-3.751-0.575-5.143-1.618c-1.498-1.124-2.357-2.721-2.357-4.382h3c0 1.626 2.061 3 4.5 3s4.5-1.374 4.5-3c0-1.626-2.061-3-4.5-3h-12v-1.5h7.020c-0.055-0.039-0.109-0.078-0.163-0.118-1.498-1.124-2.357-2.721-2.357-4.382s0.859-3.258 2.357-4.382c1.391-1.043 3.218-1.618 5.143-1.618s3.751 0.575 5.143 1.618c1.498 1.124 2.357 2.721 2.357 4.382h-3c0-1.626-2.061-3-4.5-3s-4.5 1.374-4.5 3c0 1.626 2.061 3 4.5 3 1.851 0 3.611 0.532 4.98 1.5h7.020z"></path>
</svg>

<svg xmlns="http://www.w3.org/2000/svg" width="24" height="24"><path d="M24 12v1.5h-5.496c.645.903.996 1.938.996 3 0 1.661-.859 3.258-2.357 4.382C15.752 21.925 13.925 22.5 12 22.5s-3.751-.575-5.143-1.618C5.359 19.758 4.5 18.161 4.5 16.5h3c0 1.626 2.061 3 4.5 3s4.5-1.374 4.5-3-2.061-3-4.5-3H0V12h7.02a9.666 9.666 0 0 1-.163-.118C5.359 10.758 4.5 9.161 4.5 7.5s.859-3.258 2.357-4.382C8.248 2.075 10.075 1.5 12 1.5s3.751.575 5.143 1.618C18.641 4.242 19.5 5.839 19.5 7.5h-3c0-1.626-2.061-3-4.5-3s-4.5 1.374-4.5 3 2.061 3 4.5 3c1.851 0 3.611.532 4.98 1.5H24z"/></svg>
